assets/svg/icon-ui-checkmark-blue.svg

<?xml version="1.0" encoding="UTF-8" standalone="no"?>
<svg width="32px" height="32px" viewBox="0 0 32 32" version="1.1" xmlns="http://www.w3.org/2000/svg" xmlns:xlink="http://www.w3.org/1999/xlink">
    <!-- Generator: Sketch 3.8.3 (29802) - http://www.bohemiancoding.com/sketch -->
    <title>blue/icon-ui-checkmark-blue</title>
    <desc>Created with Sketch.</desc>
    <defs></defs>
    <g id="blue,-base" stroke="none" stroke-width="1" fill="none" fill-rule="evenodd">
        <g id="icons,-utility-(blue)" transform="translate(-251.000000, -237.000000)" fill="#1055FF">
            <g id="blue/icon-ui-checkmark-blue" transform="translate(251.000000, 237.000000)">
                <g id="Fill-136">
                    <g id="PaaS">
                        <g id="hl7">
                            <g id="Lead-Section">
                                <g id="Highly-available-nod-2-+-Mirth-and-database-i-2-+-Y-2">
                                    <path d="M24.4350001,12.1863333 L13.736,22.8849999 C13.3636667,23.2573334 12.7596667,23.2573334 12.3870001,22.8849999 L7.456,17.954 C7.08366666,17.5816667 7.08366666,16.9773334 7.456,16.6050001 L8.26566666,15.7956667 C8.638,15.4230001 9.24233334,15.4230001 9.615,15.7956667 L13.0616667,19.2423333 L22.2763333,10.0273333 C22.6493334,9.655 23.2530001,9.655 23.6256667,10.0273333 L24.4350001,10.837 C24.8073334,11.2093333 24.8073334,11.8133333 24.4350001,12.1863333 M16,0 C7.16366666,0 0,7.16366666 0,16 C0,24.8366666 7.16366666,32 16,32 C24.8366666,32 32,24.8366666 32,16 C32,7.16366666 24.8366666,0 16,0" id="Fill-136"></path>
                                </g>
                            </g>
                        </g>
                    </g>
                </g>
            </g>
        </g>
    </g>
</svg>

<svg width="32" height="32" viewBox="0 0 32 32" xmlns="http://www.w3.org/2000/svg"><title>blue/icon-ui-checkmark-blue</title><path d="M24.435 12.186L13.736 22.885a.954.954 0 0 1-1.349 0l-4.931-4.931a.954.954 0 0 1 0-1.349l.81-.81a.954.954 0 0 1 1.349 0l3.447 3.447 9.214-9.215a.955.955 0 0 1 1.35 0l.809.81a.955.955 0 0 1 0 1.35M16 0C7.164 0 0 7.164 0 16c0 8.837 7.164 16 16 16 8.837 0 16-7.163 16-16 0-8.836-7.163-16-16-16" fill="#1055FF" fill-rule="evenodd"/></svg>
